svg/stride3d.svg

<svg viewBox="0 0 20 20" xmlns="http://www.w3.org/2000/svg">
<rect width="100%" height="100%" fill="#333638"/>
<path d="M10.1676 9.5871L17.1801 5.44684L10.4651 1.5C8.11063 2.83474 5.84538 4.21412 3.58013 5.71889L10.1676 9.5871Z" fill="white"/>
<path d="M17.0803 14.4457L13.8758 12.5903L10.174 14.7475C10.1084 14.7108 10.0484 14.6786 9.99177 14.6483C9.92734 14.6138 9.86732 14.5817 9.8085 14.5478C9.5807 14.4125 9.3532 14.2776 9.12581 14.1427C8.29894 13.6523 7.47345 13.1626 6.64012 12.6625C6.54389 12.5913 6.42731 12.5528 6.30756 12.5528C6.18782 12.5528 6.07124 12.5913 5.975 12.6625C5.64793 12.8635 5.31074 13.0503 4.9739 13.2369C4.82271 13.3207 4.6716 13.4044 4.5215 13.4893L3 14.3565C3.02854 14.379 3.05039 14.3976 3.0687 14.4132C3.09539 14.4359 3.11458 14.4523 3.136 14.4649C5.39558 15.784 7.65233 17.1067 9.90625 18.433C9.99094 18.4838 10.0895 18.5067 10.1879 18.4983C10.2864 18.4899 10.3796 18.4507 10.4545 18.3862L16.8444 14.6221C16.9265 14.5682 17.0053 14.5093 17.0803 14.4457Z" fill="white"/>
<path d="M3.08289 9.78898L9.78514 13.7273V10.1843L3.08289 6.24384V9.78898Z" fill="white"/>
<path d="M16.8954 10.0015L13.8694 8.22257L10.5459 10.1864V13.7252L16.8954 10.0015Z" fill="white"/>
<path d="M17.1908 13.7146V10.6391L14.5813 12.1779L17.1908 13.7146Z" fill="white"/>
</svg>

<svg xmlns="http://www.w3.org/2000/svg" viewBox="0 0 20 20">
  <rect width="100%" height="100%" fill="#333638"/>
  <path fill="#fff" d="m10.17 9.59 7.01-4.14-6.71-3.95a113.47 113.47 0 0 0-6.89 4.22l6.59 3.87ZM17.08 14.45l-3.2-1.86-3.7 2.16-.19-.1-.18-.1-.68-.4-2.49-1.49a.56.56 0 0 0-.67 0c-.32.2-.66.39-1 .58l-.45.25-1.52.87.07.05.07.05 6.77 3.97a.47.47 0 0 0 .54-.04l6.4-3.77.23-.17Z"/>
  <path fill="#fff" d="m3.08 9.79 6.7 3.94v-3.55l-6.7-3.94V9.8ZM16.9 10l-3.03-1.78-3.32 1.97v3.54L16.9 10ZM17.2 13.71v-3.07l-2.62 1.54 2.61 1.53Z"/>
</svg>
